X:567
T: "Nonnenlied"
N: Z1247
O: Europa, Mitteleuropa, Deutschland, Niederrhein
R: Liebes - Lied
M: 4/4
L: 1/8
K: Bb
BF | F2B2cBAG | FED2B2Ac | c2B2z2
BG | F2B2cBAG | FED2B2Ac | c2B2z2
AB | c2d2edcB | ABc2d2ed | cB
AGF2B2 | Acc2B2

